X:216 
T:Trim the Velvet (reel) 
B:CRE3.085 (Bearr an Veilbhit)
F:file ID: cre.3/216trim
R:reel
Q:180
M:C
L:1/8
K:G
D|G3B AGFA|G2BG cAFA|G3B AGFG|defd cAFA|
"5"G3B A3c|BcdB cAFA|DGG2 AGFA|defd cAFA||
%B
"9"dgeg dgg2|dedB cAFA|dgeg dgg2|defd cAFA|
"13"d3e dBGB|dG (3BAG cAFA|dg (3efg dgg2|defd cAFA||
%C
"17"g2ga (3bag ag|g2 ab c'baf|g2ag agbg|defd cAFA|
"21"g3a bgaf|g2ab c'ba2|bgg2 agaf|defd cAFA||
%D
"25"(3BAG dG BGG2|(3BAG dG cAFA|(3BAG dG BGG2|defd cAFA|
"29"(3BAG dG BGG2|DGG2 cAFA|B2BG A2 (3ABc|d2 (3fed cAFA||

%%%

